public/assets/routes_avatar/salesInvoiceCollection.svg

<?xml version="1.0" encoding="UTF-8"?>
<svg width="60px" height="60px" viewBox="0 0 60 60" version="1.1" xmlns="http://www.w3.org/2000/svg" xmlns:xlink="http://www.w3.org/1999/xlink">
    <!-- Generator: Sketch 49.3 (51167) - http://www.bohemiancoding.com/sketch -->
    <title>销项管理-销项发票采集</title>
    <desc>Created with Sketch.</desc>
    <defs>
        <path d="M19.1908033,14.1866117 L3.80728699,14.1866117 C3.27588678,14.1866117 2.84580837,14.5639487 2.84580837,15.030321 C2.84580837,15.4966933 3.27585139,15.8740302 3.80728699,15.8740302 L19.1907679,15.8740302 C19.7222035,15.8740302 20.1522466,15.4966933 20.1522466,15.030321 C20.1522466,14.5639487 19.7222389,14.1866117 19.1908033,14.1866117 Z M11.4990451,19.2488052 L3.80728699,19.2488052 C3.27588678,19.2488052 2.84580837,19.6261422 2.84580837,20.0925145 C2.84580837,20.5588868 3.27585139,20.9378686 3.80728699,20.9378686 L11.4990451,20.9378686 C12.0323551,20.9378686 12.4623628,20.5588557 12.4623628,20.0925145 C12.4623628,19.6261733 12.0323905,19.2488052 11.4990451,19.2488052 Z M21.9390909,0 L3.05903474,0 C1.37270729,0 0,1.08924675 0,2.42564475 L0,24.5727105 C0,25.9107843 1.37270726,27 3.05903474,27 L15.38532,27 L17.3082772,27 L18.0105629,27 L25,21.3923917 L25,2.4256758 C25,1.08924678 23.6272927,0 21.9390909,0 Z M17.3082772,25.2763964 L17.3082772,22.7815468 C17.3082772,22.3168193 17.7382849,21.9378375 18.2678814,21.9378375 L21.4696155,21.9378375 L17.3082772,25.2763964 Z M23.0770781,20.2488052 L18.2678814,20.2488052 C16.677288,20.2488052 15.38532,21.3841678 15.38532,22.7815468 L15.38532,25.3126436 L3.05903474,25.3126435 C2.4430759,25.3126435 1.92292186,24.9731985 1.92292186,24.5727415 L1.9229219,2.4256758 C1.9229219,2.02524984 2.44307593,1.68744959 3.05903477,1.68744959 L21.9390909,1.68744959 C22.5550144,1.68744959 23.0770782,2.02524984 23.0770782,2.4256758 L23.0770781,20.2488052 Z" id="path-1"></path>
        <path d="M25.7584448,23.5172281 L20.2410512,23.5172281 C20.1078034,23.5172281 20,23.6250315 20,23.7582792 C20,23.891527 20.1078034,23.9993304 20.2410512,23.9993304 L25.7584448,23.9993304 C25.8916926,23.9993304 25.999496,23.891527 25.999496,23.7582792 C25.999496,23.6250315 25.8916926,23.5172281 25.7584448,23.5172281 Z M21.5534409,22.7271159 L23.1303174,22.059538 C23.1557617,22.0488246 23.1785276,22.0334241 23.1986152,22.0140061 L25.8582132,19.3544081 C26.0463671,19.1662543 26.0477063,18.8595836 25.8595524,18.6714298 L25.3285702,18.1404476 C25.1404164,17.9522937 24.8337457,17.9536329 24.6455919,18.1417868 L21.9859939,20.8013848 C21.9665759,20.8208028 21.9511754,20.8442383 21.940462,20.8696826 L21.2722146,22.4458895 C21.2347177,22.5342749 21.2608316,22.6233299 21.3177464,22.6809144 C21.3746613,22.7384988 21.4643859,22.7646127 21.5534409,22.7271159 Z M24.9864115,18.4826063 L24.9877507,18.4812672 L25.5180633,19.0115798 L25.5167241,19.0129189 L25.1015804,19.4280626 L24.5712678,18.89775 L24.9864115,18.4826063 Z M22.3636407,21.1053771 L24.2304482,19.2385696 L24.7607608,19.7688822 L22.8939533,21.6356897 L21.9739413,22.0253891 L22.3636407,21.1053771 Z" id="path-2"></path>
    </defs>
    <g id="icon" stroke="none" stroke-width="1" fill="none" fill-rule="evenodd">
        <g id="销项管理-销项发票采集">
            <circle id="Oval-Copy" fill="#05DCAC" transform="translate(30.000000, 30.000000) scale(-1, 1) translate(-30.000000, -30.000000) " cx="30" cy="30" r="30"></circle>
            <g id="Group-37" transform="translate(15.000000, 16.000000)">
                <g id="Group-32">
                    <g id="Shape" fill-rule="nonzero" transform="translate(12.500000, 13.500000) scale(-1, 1) rotate(-180.000000) translate(-12.500000, -13.500000) ">
                        <use fill="#FFFFFF" fill-rule="evenodd" xlink:href="#path-1"></use>
                        <path stroke="#05DCAC" stroke-width="0.2" d="M19.1908033,14.2866117 L3.80728699,14.2866117 C3.32839396,14.2866117 2.94580837,14.6223182 2.94580837,15.030321 C2.94580837,15.4383351 3.32837128,15.7740302 3.80728699,15.7740302 L19.1907679,15.7740302 C19.6696836,15.7740302 20.0522466,15.4383351 20.0522466,15.030321 C20.0522466,14.6222996 19.6697113,14.2866117 19.1908033,14.2866117 Z M11.4990451,19.3488052 L3.80728699,19.3488052 C3.32839396,19.3488052 2.94580837,19.6845117 2.94580837,20.0925145 C2.94580837,20.5009105 3.32877881,20.8378686 3.80728699,20.8378686 L11.4990451,20.8378686 C11.9791425,20.8378686 12.3623628,20.5011186 12.3623628,20.0925145 C12.3623628,19.6842816 11.9795731,19.3488052 11.4990451,19.3488052 Z M21.9390909,0.1 L3.05903474,0.1 C1.42384388,0.1 0.1,1.14996355 0.1,2.42564475 L0.1,24.5727105 C0.1,25.8498144 1.42351625,26.9 3.05903474,26.9 L17.3082772,26.9 L17.9479842,26.9220006 L24.9,21.3923917 L24.9,2.4256758 C24.9,1.14974934 23.5758781,0.1 21.9390909,0.1 Z M17.2082772,25.2763964 L17.2082772,22.7815468 C17.2082772,22.258227 17.6860579,21.8378375 18.2678814,21.8378375 L21.4696155,21.8378375 L21.5321934,22.0158376 L17.3708551,25.3543964 L17.2082772,25.2763964 Z M23.0770781,20.3488052 L18.2678814,20.3488052 C16.7299181,20.3488052 15.48532,21.4424173 15.48532,22.7815468 L15.48532,25.3126436 L15.38532,25.4126436 L3.05903474,25.4126435 C2.39492033,25.4126435 1.82292186,25.0398867 1.82292186,24.5727415 L1.8229219,2.4256758 C1.8229219,1.95877453 2.39448146,1.58744959 3.05903477,1.58744959 L21.9390909,1.58744959 C22.6039528,1.58744959 23.1770782,1.95894302 23.1770782,2.4256758 L23.1770781,20.2488052 L23.0770781,20.3488052 Z"></path>
                    </g>
                    <path d="M6.77160494,17.0064586 L7.40740741,17.0064586 L7.40740741,18.7244349 L8.54320988,18.7244349 L8.54320988,22.1410118 C8.54320988,22.6576964 8.32716049,22.9224973 7.90123457,22.9224973 L7.31481481,22.9224973 L7.14814815,22.2831001 L7.69753086,22.3153929 C7.83333333,22.3153929 7.90123457,22.2055974 7.90123457,21.992465 L7.90123457,21.5726588 L6.27160494,21.5726588 L6.27160494,22.9354144 L5.62962963,22.9354144 L5.62962963,18.7244349 L6.77160494,18.7244349 L6.77160494,17.0064586 Z M6.27160494,20.4682454 L6.27160494,21.0043057 L7.90123457,21.0043057 L7.90123457,20.4682454 L6.27160494,20.4682454 Z M7.90123457,19.8998924 L7.90123457,19.3638321 L6.27160494,19.3638321 L6.27160494,19.8998924 L7.90123457,19.8998924 Z M6.00617284,17.2518837 C6.19135802,17.5683531 6.37037037,17.9171152 6.54320988,18.3046286 L6.02469136,18.5758881 C5.85185185,18.1883746 5.66666667,17.8331539 5.4691358,17.5231432 L6.00617284,17.2518837 Z M8.17283951,17.1808396 L8.7037037,17.452099 C8.55555556,17.8396125 8.37037037,18.2142088 8.13580247,18.5758881 L7.61728395,18.2917115 C7.85185185,17.9171152 8.03703704,17.5489774 8.17283951,17.1808396 Z M3.80246914,17 L4.41975309,17.1356297 C4.37654321,17.3164693 4.33333333,17.4843918 4.28395062,17.6458558 L5.30864198,17.6458558 L5.30864198,18.285253 L4.07407407,18.285253 C3.98148148,18.5242196 3.88271605,18.7502691 3.78395062,18.9569429 L5.2037037,18.9569429 L5.2037037,19.5575888 L4.63580247,19.5575888 L4.63580247,20.1646932 L5.41358025,20.1646932 L5.41358025,20.7847147 L4.63580247,20.7847147 L4.63580247,22.0441335 C4.88888889,21.9407966 5.14197531,21.818084 5.38888889,21.6630786 L5.5,22.2508073 C5.07407407,22.4833154 4.58641975,22.6770721 4.03703704,22.8320775 L3.77160494,22.2508073 C3.92592593,22.1926803 4.00617284,22.1022605 4.00617284,21.9860065 L4.00617284,20.7847147 L3.22839506,20.7847147 L3.22839506,20.1646932 L4.00617284,20.1646932 L4.00617284,19.5575888 L3.70987654,19.5575888 L3.70987654,19.1054898 C3.64814815,19.2217438 3.58641975,19.3315393 3.52469136,19.4348762 L3,19.0861141 C3.38271605,18.4337998 3.64814815,17.7362756 3.80246914,17 Z M9.97530864,18.2012917 L9.31481481,18.2012917 L9.31481481,17.5425188 L11.2777778,17.5425188 L11.2777778,18.2012917 L10.6296296,18.2012917 L10.6296296,20.8428418 C10.8641975,20.7588805 11.0802469,20.6749193 11.2901235,20.590958 L11.2901235,21.262648 C10.7469136,21.4951561 10.1296296,21.714747 9.42592593,21.9149623 L9.2345679,21.2497309 C9.49382716,21.1851453 9.74074074,21.1141012 9.97530864,21.0495156 L9.97530864,18.2012917 Z M11.4506173,17.1872982 L14.9320988,17.1872982 L14.9320988,17.846071 L13.5061728,17.846071 C13.4814815,18.0139935 13.4506173,18.181916 13.4135802,18.3369214 L14.7037037,18.3369214 L14.7037037,21.4951561 L14.0740741,21.4951561 L14.0740741,18.9569429 L12.2901235,18.9569429 L12.2901235,21.4951561 L11.6666667,21.4951561 L11.6666667,18.3369214 L12.7777778,18.3369214 C12.8148148,18.1754575 12.845679,18.0139935 12.8703704,17.846071 L11.4506173,17.846071 L11.4506173,17.1872982 Z M13.7839506,21.4370291 C14.2654321,21.7987083 14.6666667,22.1603875 15,22.5156082 L14.537037,23 C14.2592593,22.6512379 13.8641975,22.270183 13.3518519,21.8697524 L13.7839506,21.4370291 Z M12.845679,19.247578 L13.4876543,19.247578 L13.4876543,20.3842842 C13.4506173,21.088267 13.2654321,21.65662 12.9320988,22.0828848 C12.6049383,22.4703983 12.0740741,22.7739505 11.3333333,22.9870829 L10.9814815,22.4122713 C11.6975309,22.2055974 12.1851852,21.9537137 12.4382716,21.65662 C12.6790123,21.3336921 12.8148148,20.9074273 12.845679,20.3842842 L12.845679,19.247578 Z" id="销项" fill="#FFFFFF"></path>
                </g>
                <circle id="Oval-10" fill="#05DCAC" cx="22.5" cy="20.5" r="7.5"></circle>
                <circle id="Oval-11" stroke="#FFFFFF" stroke-width="1.5" fill="#05DCAC" cx="23" cy="21" r="6"></circle>
                <g id="Shape" fill-rule="nonzero">
                    <use fill="#FFFFFF" fill-rule="evenodd" xlink:href="#path-2"></use>
                    <path stroke="#FFFFFF" stroke-width="0.2" d="M25.7584448,23.4172281 C25.9469211,23.4172281 26.099496,23.569803 26.099496,23.7582792 C26.099496,23.9467554 25.9469211,24.0993304 25.7584448,24.0993304 L20.2410512,24.0993304 C20.052575,24.0993304 19.9,23.9467554 19.9,23.7582792 C19.9,23.569803 20.052575,23.4172281 20.2410512,23.4172281 L25.7584448,23.4172281 Z M21.5924266,22.8192034 L21.5922466,22.8192794 C21.4694817,22.8709699 21.3355807,22.8412141 21.2466235,22.7512103 C21.1578222,22.6613644 21.1284806,22.5286417 21.180147,22.4068566 L21.8482985,20.8308769 C21.8641035,20.7933399 21.886826,20.7591313 21.9152832,20.7306741 L24.5748812,18.0710761 C24.8022574,17.8436999 25.1722426,17.8426986 25.3992809,18.0697369 L25.9302631,18.6007191 C26.1573014,18.8277574 26.1563001,19.1977426 25.9289239,19.4251188 L23.2681174,22.085905 C23.2390036,22.1140483 23.2058275,22.1362471 23.1693031,22.1516256 L21.5924266,22.8192034 Z M24.9877507,18.6226885 L24.7126891,18.89775 L25.1015804,19.2866413 L25.3766419,19.0115798 L24.9877507,18.6226885 Z M22.448124,21.1623152 L22.1613036,21.8394479 L22.8232426,21.564979 L24.6193394,19.7688822 L24.2304482,19.379991 L22.448124,21.1623152 Z"></path>
                </g>
            </g>
        </g>
    </g>
</svg>

<svg width="60" height="60" xmlns="http://www.w3.org/2000/svg" xmlns:xlink="http://www.w3.org/1999/xlink"><defs><path d="M19.19 14.187H3.808c-.531 0-.961.377-.961.843 0 .467.43.844.961.844h15.384c.531 0 .961-.377.961-.844 0-.466-.43-.843-.961-.843zM11.5 19.249H3.807c-.531 0-.961.377-.961.844 0 .466.43.845.961.845H11.5c.533 0 .963-.38.963-.845 0-.467-.43-.844-.963-.844zM21.939 0H3.06C1.373 0 0 1.09 0 2.426v22.147C0 25.91 1.373 27 3.059 27h14.952L25 21.392V2.426C25 1.089 23.627 0 21.94 0zm-4.63 25.276v-2.494c0-.465.43-.844.959-.844h3.202l-4.162 3.338zm5.768-5.027h-4.81c-1.59 0-2.882 1.135-2.882 2.533v2.53H3.06c-.616 0-1.136-.339-1.136-.74V2.427c0-.4.52-.739 1.136-.739h18.88c.616 0 1.138.338 1.138.739v17.823z" id="a"/><path d="M25.758 23.517h-5.517a.24.24 0 1 0 0 .482h5.517a.24.24 0 1 0 0-.482zm-4.205-.79l1.577-.667a.222.222 0 0 0 .069-.046l2.66-2.66a.484.484 0 0 0 0-.683l-.53-.53a.484.484 0 0 0-.683 0l-2.66 2.66a.214.214 0 0 0-.046.069l-.668 1.576a.212.212 0 0 0 .046.235.212.212 0 0 0 .235.046zm3.433-4.244l.002-.002.53.53-.001.002-.415.415-.53-.53.414-.415zm-2.622 2.622l1.866-1.866.53.53-1.866 1.867-.92.39.39-.92z" id="b"/></defs><g fill="none" fill-rule="evenodd"><circle fill="#05DCAC" transform="matrix(-1 0 0 1 60 0)" cx="30" cy="30" r="30"/><g transform="translate(15 16)"><g fill-rule="nonzero" transform="matrix(1 0 0 -1 0 27)"><use fill="#FFF" fill-rule="evenodd" xlink:href="#a"/><path stroke="#05DCAC" stroke-width=".2" d="M19.19 14.287H3.808c-.479 0-.861.335-.861.743s.382.744.861.744h15.384c.479 0 .861-.336.861-.744s-.382-.743-.861-.743zM11.5 19.349H3.807c-.479 0-.861.336-.861.744s.383.745.861.745H11.5c.48 0 .863-.337.863-.745 0-.409-.382-.744-.863-.744zM21.939.1H3.06C1.424.1.1 1.15.1 2.426v22.147C.1 25.85 1.424 26.9 3.059 26.9h14.25l.639.022 6.952-5.53V2.426C24.9 1.15 23.576.1 21.94.1zm-4.73 25.176v-2.494c0-.524.477-.944 1.059-.944h3.202l.062.178-4.161 3.338-.163-.078zm5.868-4.927h-4.81c-1.537 0-2.782 1.093-2.782 2.433v2.53l-.1.1H3.06c-.664 0-1.236-.372-1.236-.84V2.427c0-.467.571-.839 1.236-.839h18.88c.665 0 1.238.372 1.238.839v17.823l-.1.1z"/></g><path d="M6.772 17.006h.635v1.718h1.136v3.417c0 .517-.216.781-.642.781h-.586l-.167-.639.55.032c.135 0 .203-.11.203-.323v-.42h-1.63v1.363H5.63v-4.21h1.142v-1.719zm-.5 3.462v.536h1.63v-.536h-1.63zm1.63-.568v-.536h-1.63v.536h1.63zm-1.896-2.648c.185.316.364.665.537 1.053l-.518.27a8.142 8.142 0 0 0-.556-1.052l.537-.271zm2.167-.071l.53.271a5.969 5.969 0 0 1-.567 1.124l-.519-.284c.235-.375.42-.743.556-1.111zM3.803 17l.617.136c-.043.18-.087.348-.136.51h1.025v.64H4.074a9.657 9.657 0 0 1-.29.67h1.42v.602h-.568v.607h.778v.62h-.778v1.26c.253-.104.506-.227.753-.382l.111.588a7.034 7.034 0 0 1-1.463.581l-.265-.581c.154-.058.234-.149.234-.265v-1.201h-.778v-.62h.778v-.607H3.71v-.453a7.516 7.516 0 0 1-.185.33L3 19.086A6.89 6.89 0 0 0 3.802 17zm6.172 1.201h-.66v-.658h1.963v.658h-.648v2.642c.234-.084.45-.168.66-.252v.672c-.543.232-1.16.452-1.864.652l-.191-.665c.259-.065.506-.136.74-.2V18.2zm1.476-1.014h3.481v.66h-1.426a5.727 5.727 0 0 1-.092.49h1.29v3.158h-.63v-2.538H12.29v2.538h-.623v-3.158h1.11c.038-.162.069-.323.093-.49h-1.42v-.66zm2.333 4.25c.481.362.883.723 1.216 1.079l-.463.484c-.278-.349-.673-.73-1.185-1.13l.432-.433zm-.938-2.19h.642v1.137c-.037.704-.223 1.273-.556 1.699-.327.387-.858.691-1.599.904l-.352-.575c.717-.206 1.204-.458 1.457-.755.241-.323.377-.75.408-1.273v-1.136z" fill="#FFF"/><circle fill="#05DCAC" cx="22.5" cy="20.5" r="7.5"/><circle stroke="#FFF" stroke-width="1.5" fill="#05DCAC" cx="23" cy="21" r="6"/><g fill-rule="nonzero"><use fill="#FFF" fill-rule="evenodd" xlink:href="#b"/><path stroke="#FFF" stroke-width=".2" d="M25.758 23.417a.34.34 0 1 1 0 .682h-5.517a.34.34 0 1 1 0-.682h5.517zm-4.166-.598h0a.311.311 0 0 1-.345-.068.312.312 0 0 1-.067-.344l.668-1.576a.314.314 0 0 1 .067-.1l2.66-2.66a.584.584 0 0 1 .824-.001l.531.53a.584.584 0 0 1-.001.825l-2.66 2.66a.321.321 0 0 1-.1.067l-1.577.667zm3.396-4.196l-.275.275.389.389.275-.275-.39-.39zm-2.54 2.54l-.287.676.662-.274 1.796-1.796-.389-.389-1.782 1.782z"/></g></g></g></svg>
